public/assets/img/program1-3.svg

<svg width="39" height="39" viewBox="0 0 39 39" fill="none" xmlns="http://www.w3.org/2000/svg">
<path d="M39 19.5C39 8.74795 30.252 0 19.5 0C16.129 0 12.8448 0.873097 9.93305 2.51613H7.54839V0H3.77419V7.98053C1.30839 11.3396 0 15.315 0 19.5C0 30.2527 8.74795 39 19.5 39C21.896 39 24.2347 38.5691 26.4521 37.7224C27.7177 38.527 29.2148 39 30.8226 39C32.7839 39 34.6811 38.2949 36.1643 37.0148L35.3422 36.0624C34.0873 37.1456 32.4826 37.7419 30.8226 37.7419C27.0075 37.7419 23.9032 34.6377 23.9032 30.8226C23.9032 27.0075 27.0075 23.9032 30.8226 23.9032C34.6377 23.9032 37.7419 27.0075 37.7419 30.8226C37.7419 32.4172 37.2148 33.9162 36.2165 35.1572L37.1972 35.946C38.3596 34.4999 39 32.6807 39 30.8226C39 29.2135 38.5263 27.7164 37.7212 26.4502C38.5672 24.2322 39 21.896 39 19.5ZM10.0645 6.29032H11.3226V15.0968H10.0645V6.29032ZM7.54839 3.77419H8.80645V15.0968H7.54839V3.77419ZM5.03226 1.25806H6.29032V15.0968H5.03226V1.25806ZM18.871 37.7262C9.31219 37.3997 1.60026 29.6878 1.27379 20.129H18.871V37.7262ZM18.871 18.871H1.28323C1.38576 15.8088 2.23621 12.8826 3.77419 10.274V16.3548H17.6129V10.0645H15.0968V7.54839H12.5806V5.03226H10.0645V3.89497C12.726 2.28213 15.7503 1.38702 18.871 1.28008V18.871ZM12.5806 15.0968V8.80645H13.8387V15.0968H12.5806ZM15.0968 15.0968V11.3226H16.3548V15.0968H15.0968ZM37.7262 18.871H32.3411L36.967 14.2451C37.4111 15.7176 37.6715 17.2682 37.7262 18.871ZM34.5565 9.21532L27.5309 16.241L28.4203 17.1304L35.2453 10.3054C35.7334 11.1383 36.1568 12.0126 36.5103 12.9228L30.5622 18.871H26.6798L27.4931 18.0576L26.6037 17.1682L24.9009 18.871H21.0185L32.8273 7.06215C33.4551 7.73521 34.0344 8.45356 34.5565 9.21532ZM20.129 1.27379C21.7318 1.32852 23.2824 1.58894 24.7549 2.03303L20.129 6.65894V1.27379ZM20.129 14.0991L27.7737 6.4545L26.8842 5.56505L20.129 12.3202V8.43784L26.0772 2.48971C26.9874 2.8426 27.8617 3.26594 28.6946 3.75469L27.6812 4.76806L28.5706 5.65752L29.7847 4.44348C30.5464 4.96558 31.2648 5.54429 31.9379 6.17269L20.129 17.9815V14.0991ZM30.8226 22.6452C26.3137 22.6452 22.6452 26.3137 22.6452 30.8226C22.6452 33.1884 23.661 35.3158 25.272 36.8103C23.6145 37.3633 21.8903 37.6683 20.129 37.7275V20.129H37.7275C37.6683 21.8897 37.3607 23.6126 36.8084 25.2701C35.3139 23.6598 33.1871 22.6452 30.8226 22.6452Z" fill="#ACBDCE"/>
<path d="M15.2838 22.8292L7.73535 30.3777L8.62493 31.2672L16.1734 23.7188L15.2838 22.8292Z" fill="#ACBDCE"/>
<path d="M14.4677 27.6774C13.4273 27.6774 12.5806 28.5241 12.5806 29.5645C12.5806 30.6049 13.4273 31.4516 14.4677 31.4516C15.5081 31.4516 16.3548 30.6049 16.3548 29.5645C16.3548 28.5241 15.5081 27.6774 14.4677 27.6774ZM14.4677 30.1936C14.1211 30.1936 13.8387 29.9118 13.8387 29.5645C13.8387 29.2173 14.1211 28.9355 14.4677 28.9355C14.8143 28.9355 15.0968 29.2173 15.0968 29.5645C15.0968 29.9118 14.8143 30.1936 14.4677 30.1936Z" fill="#ACBDCE"/>
<path d="M9.43548 22.6452C8.39506 22.6452 7.54838 23.4919 7.54838 24.5323C7.54838 25.5727 8.39506 26.4194 9.43548 26.4194C10.4759 26.4194 11.3226 25.5727 11.3226 24.5323C11.3226 23.4919 10.4759 22.6452 9.43548 22.6452ZM9.43548 25.1613C9.08888 25.1613 8.80644 24.8795 8.80644 24.5323C8.80644 24.185 9.08888 23.9032 9.43548 23.9032C9.78207 23.9032 10.0645 24.185 10.0645 24.5323C10.0645 24.8795 9.78207 25.1613 9.43548 25.1613Z" fill="#ACBDCE"/>
<path d="M30.8226 30.1936C30.1288 30.1936 29.5645 29.6293 29.5645 28.9355C29.5645 28.2417 30.1288 27.6774 30.8226 27.6774C31.5164 27.6774 32.0806 28.2417 32.0806 28.9355H33.3387C33.3387 27.7661 32.5335 26.7899 31.4516 26.5087V25.1613H30.1935V26.5087C29.1116 26.7899 28.3064 27.7661 28.3064 28.9355C28.3064 30.3231 29.4349 31.4516 30.8226 31.4516C31.5164 31.4516 32.0806 32.0159 32.0806 32.7097C32.0806 33.4035 31.5164 33.9678 30.8226 33.9678C30.1288 33.9678 29.5645 33.4035 29.5645 32.7097H28.3064C28.3064 33.8791 29.1116 34.8553 30.1935 35.1365V36.4839H31.4516V35.1365C32.5335 34.8553 33.3387 33.8791 33.3387 32.7097C33.3387 31.322 32.2102 30.1936 30.8226 30.1936Z" fill="#ACBDCE"/>
<path d="M36.4839 30.1936H35.2258V31.4516H36.4839V30.1936Z" fill="#ACBDCE"/>
<path d="M26.4194 30.1936H25.1613V31.4516H26.4194V30.1936Z" fill="#ACBDCE"/>
</svg>

<svg width="39" height="39" fill="none" xmlns="http://www.w3.org/2000/svg"><path d="M39 19.5C39 8.748 30.252 0 19.5 0c-3.371 0-6.655.873-9.567 2.516H7.548V0H3.774v7.98A19.324 19.324 0 0 0 0 19.5C0 30.253 8.748 39 19.5 39c2.396 0 4.735-.43 6.952-1.278A8.12 8.12 0 0 0 30.822 39a8.178 8.178 0 0 0 5.342-1.985l-.822-.953a6.918 6.918 0 0 1-4.52 1.68 6.927 6.927 0 0 1-6.919-6.92 6.928 6.928 0 0 1 6.92-6.919 6.927 6.927 0 0 1 6.919 6.92 6.845 6.845 0 0 1-1.525 4.334l.98.789A8.205 8.205 0 0 0 39 30.823c0-1.61-.474-3.107-1.279-4.373A19.424 19.424 0 0 0 39 19.5ZM10.065 6.29h1.258v8.807h-1.258V6.29ZM7.548 3.774h1.258v11.323H7.548V3.774ZM5.032 1.258H6.29v13.839H5.032V1.258Zm13.839 36.468C9.312 37.4 1.601 29.688 1.274 20.13H18.87v17.597Zm0-18.855H1.283a18.026 18.026 0 0 1 2.491-8.597v6.08h13.839v-6.29h-2.516V7.549H12.58V5.032h-2.516V3.895A18.164 18.164 0 0 1 18.87 1.28v17.591Zm-6.29-3.774v-6.29h1.258v6.29H12.58Zm2.516 0v-3.774h1.258v3.774h-1.258Zm22.63 3.774H32.34l4.626-4.626c.444 1.473.705 3.023.76 4.626Zm-3.17-9.656-7.026 7.026.89.89 6.824-6.826c.488.833.912 1.708 1.265 2.618l-5.948 5.948H26.68l.813-.813-.89-.89-1.702 1.703h-3.883l11.81-11.809a18.453 18.453 0 0 1 1.728 2.153ZM20.128 1.274c1.603.055 3.153.315 4.626.759l-4.626 4.626V1.274Zm0 12.825 7.645-7.644-.89-.89-6.755 6.755V8.438l5.948-5.948c.91.353 1.785.776 2.618 1.265L27.68 4.768l.89.89 1.214-1.215a18.4 18.4 0 0 1 2.153 1.73L20.129 17.982v-3.883Zm10.694 8.546c-4.51 0-8.178 3.669-8.178 8.178a8.147 8.147 0 0 0 2.627 5.987 18.132 18.132 0 0 1-5.143.917V20.13h17.598a18.15 18.15 0 0 1-.919 5.141 8.146 8.146 0 0 0-5.985-2.625Z" fill="#ACBDCE"/><path d="m15.284 22.83-7.549 7.548.89.89 7.548-7.55-.89-.889ZM14.468 27.677a1.89 1.89 0 0 0-1.887 1.887 1.89 1.89 0 0 0 1.887 1.888 1.89 1.89 0 0 0 1.887-1.888 1.89 1.89 0 0 0-1.887-1.887Zm0 2.517a.63.63 0 1 1 .001-1.26.63.63 0 0 1-.001 1.26ZM9.435 22.645a1.89 1.89 0 0 0-1.887 1.887 1.89 1.89 0 0 0 1.887 1.887 1.89 1.89 0 0 0 1.888-1.887 1.89 1.89 0 0 0-1.888-1.887Zm0 2.516a.63.63 0 1 1 .002-1.259.63.63 0 0 1-.002 1.26ZM30.823 30.194a1.26 1.26 0 0 1-1.259-1.258 1.26 1.26 0 0 1 1.259-1.259 1.26 1.26 0 0 1 1.258 1.259h1.258c0-1.17-.806-2.146-1.887-2.427V25.16h-1.259v1.348a2.513 2.513 0 0 0-1.887 2.427 2.519 2.519 0 0 0 2.517 2.516 1.26 1.26 0 0 1 0 2.516 1.26 1.26 0 0 1-1.259-1.258h-1.258c0 1.17.806 2.145 1.887 2.426v1.348h1.259v-1.348a2.513 2.513 0 0 0 1.887-2.426 2.519 2.519 0 0 0-2.516-2.516ZM36.484 30.194h-1.258v1.258h1.258v-1.258ZM26.42 30.194H25.16v1.258h1.258v-1.258Z" fill="#ACBDCE"/></svg>
